X: 38188
T: Sprig Of Holly Schottische
R: barndance
M: 4/4
K: Gmajor
Bc|dBcA GBdg|fe^de a3 g|fgfe dcAF|GABc d2 Bc|
dBcA GBdg|fe^de a3 g|fgfe dcAF|G2 G2 G2:|
Ad|f2 f2 (3faf dc|B2 g2 g3 e|cdcA ^GAcA|d2 f2 a3 g|
f2 f2 (3faf dc|B2 g2 g3 f|edcf eABc|d2 d2 d2:|
[K: Cmajor] ef|g2 eg c'2 ce|g2 f2 B2 de|f z g z b z a z|a2 ge c2 ef|
g2 eg c'2 bc'|d' z c' z d2 ba|gc'ba gfde|c2 e2 c2:|

